!!!!SEGMENT: pl-kk--kk-i-274--002_anonim--missa-rorate-caeli-desuper-benedixisti.krn
!!!cenid: 17xx:2078
!!!COM: Anonim
!!!COM-rismid: pe30004985
!!!CDT:
!!!CNT:
!!!OPR: Missa Rorate caeli desuper
!!!OTL: Benedixisti
!!!OMV: 002
!!!PDT:
!!!AGN: Sacred; Mass
!!!SMS-siglum: PL-Kk
!!!SMS-shelfmark: Kk.I.274
!!!SMS-shelfwork: 001-002 M
!!!SMS-variant:
!!!SMS-altvar:
!!!NIFC-rismid: 1001147348
!!!URL-scan: http://repozytorium.nifc.pl/skany/pl-kk-nut--i-274
!!!ONB-nifc: UWAGA: części: 1. Rorate caeli, 2. Benedixisti, 3. Gloria patri, 4. Tollite portas (Quis ascendet należy do części), 5. Alleluia Ave Maria
**kern	**text
*Iempty	*
*I"Baſſo	*
*I'B	*
*clefF4	*
*k[]	*
*d:	*
*M2/1	*
*met(C|)	*
*all\right	*
=1-	=1-
1F	Be-
2C/	-ne-
*2\right	*
2E\	-di-
=2-	=2-
1D	-xis-
1AA	-ti
=3-	=3-
1D	be-
2AA/	-ne-
2D/	-di-
=4-	=4-
2C/	-xis-
2D/	-ti
1AA	.
=5-	=5-
2D/	Do-
2.F\	.
4E\	.
2C/	.
=6-	=6-
2.D/	.
4D/	-mi-
1AA	-ne
!LO:PB:g=original	!
=7-	=7-
2D/	ter-
2F\	-ram
2C/	tu-
2D/	.
=8-	=8-
1E	.
1D	-am
=9-	=9-
2r	.
2E\	a-
2F\	-ver-
2D/	-ti-
=10-	=10-
1C	-sti
2r	.
2D/	a-
=11-	=11-
2AA/	-ver-
1F	-ti-
2E\	-sti
=12-	=12-
2D/	cap-
2C/	-ti-
1D	-vi-
=13-	=13-
2AA/	-ta-
2AA/	-tem
2.FF/	Cap-
4GG/	.
=14-	=14-
4AA/	.
4BB/	.
2C/	.
!LO:LB:g=original	!
2D/	-ti-
2E\	-vi-
=15-	=15-
1F	-ta-
1E	-tem
=16-	=16-
*	*ij
2.AA/	Cap-
4BB/	.
2.C/	-ti-
4D/	-vi-
=17-	=17-
1E	-ta-
2.D/	-tem
*	*Xij
8C/L	.
8BB/J	.
=18-	=18-
0AA	Ja-
=19-	=19-
0Dl;;	-cob
==	==
*-	*-
!!!RDF**kern: l = terminal long
!!!ENC: Andrzej Kubiczek
!!!END: 2021-03-28
!!!ENC: Kamil Watkowski
!!!END: 2021-03-10
